svg/set/.alt/4ED-1/80.svg

<?xml version="1.0" encoding="UTF-8" standalone="no"?>
<svg
   width="143pt"
   height="200pt"
   viewBox="0 0 143 200"
   version="1.1"
   id="svg2"
   xmlns="http://www.w3.org/2000/svg"
   xmlns:svg="http://www.w3.org/2000/svg">
  <defs
     id="defs2" />
  <g
     id="g2">
    <polygon
       fill="#808080"
       points="134,190 10,190 10,9 134,9 "
       id="polygon1" />
    <path
       d="M 0,0 H 143 V 200 H 0 V 0 m 10.02,9.02 c -0.03,60.32 -0.03,120.64 0,180.96 41.32,0.04 82.64,0.03 123.96,0 0.03,-60.32 0.03,-120.64 0,-180.96 C 92.66,8.99 51.34,8.98 10.02,9.02 Z"
       id="path1" />
    <path
       d="m 84.78,35.76 c 4.96,-3.88 9.65,-9.09 16.15,-10.07 1.42,5.99 1.22,12.19 1.33,18.31 -0.33,14 -0.58,28.01 -0.57,42.02 0.13,3.78 -0.81,7.93 0.84,11.46 8.08,2.65 16.98,-1.01 25.07,1.85 1.83,0.65 2.3,2.86 2.03,4.57 -0.57,4.23 -2.65,8.02 -4.68,11.7 -7.61,-1.26 -15.15,-3.3 -22.91,-3.36 -1.34,16.2 0.22,32.52 -0.85,48.75 -0.22,5.66 -4.51,10.49 -9.41,12.86 -3.73,1.81 -6.31,-2.72 -6.42,-5.87 -0.32,-17.34 -0.29,-34.7 -1.27,-52.03 -0.33,-1.69 0.08,-4.24 -1.89,-5.02 -2.96,-1.11 -6.16,-1.27 -9.27,-1.5 -16.31,-0.83 -32.65,-0.34 -48.97,-0.06 -3.66,0.19 -7.35,0.11 -10.98,-0.45 0.78,-2.87 2.34,-5.42 4.49,-7.46 C 39.23,78.88 61.88,57.18 84.78,35.76 M 62.42,65.43 c -9.68,10.3 -20.06,19.95 -29.52,30.45 5.98,1.11 12.08,1.09 18.13,1.3 10.92,0.03 21.96,0.48 32.76,-1.34 0.64,-2.21 1.2,-4.46 1.22,-6.77 C 85.14,73.92 84.79,58.78 84.64,43.64 76.56,50.16 69.98,58.32 62.42,65.43 Z"
       id="path2" />
  </g>
</svg>

<?xml version="1.0" encoding="UTF-8"?>
<svg xmlns="http://www.w3.org/2000/svg" width="143pt" height="200pt" viewBox="0 0 143 200">
  <g>
    <polygon fill="#808080" points="10,9 134,9 134,190 10,190"/>
    <path d=" M 0.00 0.00 L 143.00 0.00 L 143.00 200.00 L 0.00 200.00 L 0.00 0.00 M 10.02 9.02 C 9.99 69.34 9.99 129.66 10.02 189.98 C 51.34 190.02 92.66 190.01 133.98 189.98 C 134.01 129.66 134.01 69.34 133.98 9.02 C 92.66 8.99 51.34 8.98 10.02 9.02 Z"/>
    <path d=" M 84.78 35.76 C 89.74 31.88 94.43 26.67 100.93 25.69 C 102.35 31.68 102.15 37.88 102.26 44.00 C 101.93 58.00 101.68 72.01 101.69 86.02 C 101.82 89.80 100.88 93.95 102.53 97.48 C 110.61 100.13 119.51 96.47 127.60 99.33 C 129.43 99.98 129.90 102.19 129.63 103.90 C 129.06 108.13 126.98 111.92 124.95 115.60 C 117.34 114.34 109.80 112.30 102.04 112.24 C 100.70 128.44 102.26 144.76 101.19 160.99 C 100.97 166.65 96.68 171.48 91.78 173.85 C 88.05 175.66 85.47 171.13 85.36 167.98 C 85.04 150.64 85.07 133.28 84.09 115.95 C 83.76 114.26 84.17 111.71 82.20 110.93 C 79.24 109.82 76.04 109.66 72.93 109.43 C 56.62 108.60 40.28 109.09 23.96 109.37 C 20.30 109.56 16.61 109.48 12.98 108.92 C 13.76 106.05 15.32 103.50 17.47 101.46 C 39.23 78.88 61.88 57.18 84.78 35.76 M 62.42 65.43 C 52.74 75.73 42.36 85.38 32.90 95.88 C 38.88 96.99 44.98 96.97 51.03 97.18 C 61.95 97.21 72.99 97.66 83.79 95.84 C 84.43 93.63 84.99 91.38 85.01 89.07 C 85.14 73.92 84.79 58.78 84.64 43.64 C 76.56 50.16 69.98 58.32 62.42 65.43 Z"/>
  </g>
</svg>
